libs/ui/packages/crypto-icons/src/svg/OMG.svg

<svg width="24" height="24" viewBox="0 0 24 24" fill="none">
<path d="M12.2122 13.4501L10.6897 9.2516H9.3945V14.7439H10.3282V10.8746L11.7412 14.7439H12.6592L14.0707 10.8746V14.7439H15.0277V9.2516H13.734L12.2122 13.4501ZM5.92274 9.1181C4.23674 9.1181 3.16949 10.3894 3.16949 12.0019C3.16949 13.6136 4.23674 14.8819 5.92274 14.8819C7.60875 14.8819 8.67825 13.6226 8.67825 12.0019C8.67825 10.3804 7.611 9.1181 5.92199 9.1181H5.92274ZM5.92274 13.9054C4.84799 13.9054 4.20524 13.0969 4.20524 12.0056C4.20524 10.9136 4.84799 10.0999 5.92274 10.0999C6.99749 10.0999 7.64249 10.9159 7.64249 12.0019C7.64249 13.0871 6.99899 13.9054 5.92274 13.9054ZM18.273 12.7451H19.8495C19.7565 13.5461 19.1745 13.9226 18.429 13.9226C17.3617 13.9226 16.767 13.1374 16.767 12.0071C16.767 10.9474 17.2912 10.0774 18.4065 10.0774C19.1355 10.0774 19.725 10.4494 19.788 11.0741H20.8305C20.6895 9.8186 19.7317 9.1196 18.438 9.1196C16.6012 9.1196 15.7455 10.5326 15.7455 12.0386C15.7455 13.6564 16.7355 14.8796 18.273 14.8796C19.1745 14.8796 19.6785 14.4626 19.881 14.1101V14.7379H20.8305V11.8009H18.273V12.7459V12.7451Z" fill="#101010"/>
</svg>

<svg width="24" height="24" viewBox="0 0 24 24" fill="none"><path fill="#101010" d="M12.212 13.45 10.69 9.252H9.395v5.492h.933v-3.87l1.413 3.87h.918l1.412-3.87v3.87h.957V9.252h-1.294zm-6.29-4.332c-1.685 0-2.753 1.271-2.753 2.884s1.068 2.88 2.754 2.88 2.755-1.26 2.755-2.88c0-1.622-1.067-2.884-2.756-2.884m0 4.787c-1.074 0-1.717-.808-1.717-1.9S4.848 10.1 5.923 10.1s1.72.816 1.72 1.902-.644 1.903-1.72 1.903m12.351-1.16h1.576c-.093.801-.675 1.178-1.42 1.178-1.067 0-1.662-.786-1.662-1.916 0-1.06.524-1.93 1.64-1.93.729 0 1.318.372 1.381.997h1.043c-.142-1.255-1.1-1.954-2.393-1.954-1.837 0-2.692 1.413-2.692 2.919 0 1.617.99 2.84 2.527 2.84.901 0 1.406-.416 1.608-.769v.628h.95V11.8h-2.558z"/></svg>
